static/img/docs_logo_mobile.svg

<svg width="262" height="32" viewBox="0 0 262 32" fill="none" xmlns="http://www.w3.org/2000/svg">
<path d="M135.64 20.704V19.52H127.96V20.704H135.64ZM143.394 18H144.674V6.16H143.394V11.088H143.33C142.802 10.08 141.938 9.552 140.786 9.552C138.77 9.552 137.554 11.168 137.554 13.872C137.554 16.576 138.77 18.192 140.786 18.192C141.938 18.192 142.802 17.664 143.33 16.656H143.394V18ZM141.282 17.056C139.794 17.056 138.93 16.064 138.93 14.576V13.168C138.93 11.68 139.794 10.688 141.282 10.688C142.418 10.688 143.394 11.28 143.394 12.384V15.36C143.394 16.464 142.418 17.056 141.282 17.056ZM150.988 18.192C153.308 18.192 154.732 16.496 154.732 13.872C154.732 11.248 153.308 9.552 150.988 9.552C148.668 9.552 147.243 11.248 147.243 13.872C147.243 16.496 148.668 18.192 150.988 18.192ZM150.988 17.088C149.564 17.088 148.604 16.24 148.604 14.464V13.28C148.604 11.504 149.564 10.656 150.988 10.656C152.412 10.656 153.372 11.504 153.372 13.28V14.464C153.372 16.24 152.412 17.088 150.988 17.088ZM160.869 18.192C162.517 18.192 163.557 17.376 164.037 16.272L163.125 15.648C162.709 16.544 161.989 17.088 160.885 17.088C159.333 17.088 158.501 16.032 158.501 14.576V13.168C158.501 11.712 159.349 10.656 160.853 10.656C161.877 10.656 162.581 11.152 162.885 12L163.909 11.456C163.445 10.336 162.453 9.552 160.853 9.552C158.517 9.552 157.125 11.248 157.125 13.872C157.125 16.48 158.501 18.192 160.869 18.192ZM172.127 18H173.407V9.744H172.127V15.472C172.127 16.56 171.103 17.056 170.079 17.056C168.815 17.056 168.127 16.32 168.127 14.816V9.744H166.847V15.04C166.847 17.04 167.983 18.192 169.711 18.192C171.071 18.192 171.711 17.472 172.063 16.656H172.127V18ZM177.017 18V11.936C177.017 11.056 177.497 10.608 178.185 10.608C178.937 10.608 179.177 11.072 179.177 12.48V18H180.361V11.936C180.361 11.056 180.841 10.608 181.513 10.608C182.281 10.608 182.521 11.072 182.521 12.48V18H183.705V12.272C183.705 10.528 183.353 9.552 182.009 9.552C181.033 9.552 180.521 10.096 180.217 10.848H180.169C180.073 10.08 179.609 9.552 178.665 9.552C177.753 9.552 177.337 10.064 177.081 10.704H177.017V9.744H175.833V18H177.017ZM189.507 18.192C191.139 18.192 192.323 17.392 192.819 16.288L191.875 15.648C191.443 16.544 190.611 17.088 189.507 17.088C187.955 17.088 186.979 16.032 186.979 14.576V14.192H193.091V13.584C193.091 11.248 191.651 9.552 189.427 9.552C187.187 9.552 185.635 11.248 185.635 13.888C185.635 16.496 187.139 18.192 189.507 18.192ZM189.427 10.608C190.787 10.608 191.715 11.6 191.715 13.056V13.232H186.979V13.12C186.979 11.68 188.019 10.608 189.427 10.608ZM197.004 18V12.272C197.004 11.184 198.028 10.688 199.052 10.688C200.316 10.688 201.004 11.424 201.004 12.928V18H202.284V12.704C202.284 10.704 201.148 9.552 199.42 9.552C198.06 9.552 197.42 10.272 197.068 11.088H197.004V9.744H195.724V18H197.004ZM212.166 18V16.912H208.406V10.832H212.166V9.744H208.406V6.832H207.174V8.992C207.174 9.552 206.966 9.744 206.422 9.744H204.374V10.832H207.126V16.112C207.126 17.216 207.702 18 208.95 18H212.166ZM222.144 18V16.88H220.992V12.336C220.992 10.592 219.76 9.552 217.824 9.552C216.144 9.552 215.088 10.352 214.672 11.216L215.536 11.856C215.968 11.104 216.64 10.64 217.744 10.64C218.992 10.64 219.712 11.264 219.712 12.464V13.28H217.952C215.472 13.28 214.4 14.16 214.4 15.68C214.4 17.232 215.504 18.192 217.232 18.192C218.576 18.192 219.36 17.6 219.712 16.656H219.792C219.888 17.424 220.272 18 221.264 18H222.144ZM217.456 17.12C216.4 17.12 215.744 16.672 215.744 15.824V15.488C215.744 14.688 216.432 14.24 217.952 14.24H219.712V15.6C219.712 16.448 218.768 17.12 217.456 17.12ZM231.354 18V16.912H227.594V10.832H231.354V9.744H227.594V6.832H226.362V8.992C226.362 9.552 226.154 9.744 225.61 9.744H223.562V10.832H226.314V16.112C226.314 17.216 226.89 18 228.138 18H231.354ZM237.843 7.92C238.579 7.92 238.851 7.568 238.851 7.104V6.848C238.851 6.384 238.579 6.032 237.843 6.032C237.107 6.032 236.835 6.384 236.835 6.848V7.104C236.835 7.568 237.107 7.92 237.843 7.92ZM234.227 18H241.267V16.912H238.483V9.744H234.227V10.832H237.203V16.912H234.227V18ZM246.925 18.192C249.245 18.192 250.669 16.496 250.669 13.872C250.669 11.248 249.245 9.552 246.925 9.552C244.605 9.552 243.181 11.248 243.181 13.872C243.181 16.496 244.605 18.192 246.925 18.192ZM246.925 17.088C245.501 17.088 244.541 16.24 244.541 14.464V13.28C244.541 11.504 245.501 10.656 246.925 10.656C248.349 10.656 249.309 11.504 249.309 13.28V14.464C249.309 16.24 248.349 17.088 246.925 17.088ZM254.567 18V12.272C254.567 11.184 255.591 10.688 256.615 10.688C257.879 10.688 258.567 11.424 258.567 12.928V18H259.847V12.704C259.847 10.704 258.711 9.552 256.983 9.552C255.623 9.552 254.983 10.272 254.631 11.088H254.567V9.744H253.287V18H254.567Z" fill="#101820"/>
<path d="M42.8774 10.0025C42.9099 10.0025 42.9411 10.0157 42.9641 10.0392C42.9871 10.0627 43 10.0945 43 10.1278V15.3236C43 17.7862 41.4904 19 39.5 19C37.5096 19 36 17.7862 36 15.3236V10.1253C36 10.092 36.0129 10.0602 36.0359 10.0367C36.0589 10.0132 36.0901 10 36.1226 10H37.3048C37.3374 10 37.3686 10.0132 37.3916 10.0367C37.4146 10.0602 37.4275 10.092 37.4275 10.1253V15.2322C37.4275 16.9507 38.3055 17.6322 39.5061 17.6322C40.7067 17.6322 41.575 16.9507 41.575 15.2322V10.1253C41.575 10.092 41.5879 10.0602 41.6109 10.0367C41.6339 10.0132 41.6651 10 41.6976 10L42.8774 10.0025Z" fill="#101820"/>
<path d="M65 14.5C64.9877 17.06 63.0407 19 60.5 19C57.9593 19 56 17.06 56 14.5C56 11.94 57.9593 10 60.5 10C63.0407 10 64.9877 11.94 65 14.5ZM57.4135 14.5C57.4135 16.3143 58.7398 17.6565 60.5 17.6565C62.2602 17.6565 63.5729 16.3143 63.5729 14.5C63.5729 12.6857 62.2466 11.3435 60.5 11.3435C58.7533 11.3435 57.4135 12.6857 57.4135 14.5Z" fill="#101820"/>
<path d="M78.4478 18.9949H77.128C77.1071 18.9943 77.0867 18.9889 77.0684 18.9792C77.0502 18.9695 77.0345 18.9557 77.0228 18.939C77.0111 18.9224 77.0036 18.9032 77.001 18.8832C76.9984 18.8632 77.0008 18.8429 77.0079 18.8239L80.4936 10.1199C80.5077 10.0846 80.5325 10.0543 80.5648 10.0329C80.5971 10.0115 80.6353 10 80.6744 10H82.3229C82.3621 9.99985 82.4004 10.0113 82.4327 10.0327C82.465 10.0541 82.4898 10.0845 82.5037 10.1199L85.9921 18.829C85.9992 18.848 86.0016 18.8683 85.999 18.8883C85.9964 18.9083 85.9889 18.9275 85.9772 18.9442C85.9655 18.9608 85.9498 18.9746 85.9316 18.9843C85.9133 18.994 85.8929 18.9994 85.872 19H84.5495C84.5232 18.9997 84.4975 18.9917 84.4759 18.9772C84.4542 18.9626 84.4376 18.9421 84.4281 18.9183L81.6168 11.7518C81.6065 11.7291 81.5896 11.7099 81.5681 11.6964C81.5467 11.6829 81.5216 11.6757 81.496 11.6757C81.4704 11.6757 81.4454 11.6829 81.424 11.6964C81.4025 11.7099 81.3856 11.7291 81.3753 11.7518L78.564 18.9183C78.5541 18.9404 78.5379 18.9593 78.5173 18.9728C78.4968 18.9864 78.4727 18.994 78.4478 18.9949V18.9949Z" fill="#101820"/>
<path d="M26.4487 18.9949H25.1281C25.1072 18.9943 25.0868 18.9889 25.0685 18.9792C25.0502 18.9695 25.0345 18.9557 25.0228 18.939C25.0111 18.9224 25.0036 18.9032 25.001 18.8832C24.9984 18.8632 25.0008 18.8429 25.0079 18.8239L28.4957 10.1199C28.5096 10.0845 28.5344 10.0541 28.5667 10.0327C28.5991 10.0113 28.6374 9.99985 28.6766 10H30.326C30.3652 10 30.4034 10.0115 30.4357 10.0329C30.468 10.0543 30.4929 10.0846 30.507 10.1199L33.9921 18.829C33.9992 18.848 34.0016 18.8683 33.999 18.8883C33.9964 18.9083 33.9889 18.9275 33.9772 18.9442C33.9655 18.9608 33.9498 18.9746 33.9315 18.9843C33.9132 18.994 33.8928 18.9994 33.8719 19H32.5513C32.5249 18.9997 32.4993 18.9917 32.4776 18.9772C32.456 18.9626 32.4393 18.9421 32.4298 18.9183L29.6182 11.7467C29.6079 11.724 29.5909 11.7048 29.5695 11.6913C29.548 11.6778 29.523 11.6706 29.4974 11.6706C29.4717 11.6706 29.4467 11.6778 29.4252 11.6913C29.4038 11.7048 29.3869 11.724 29.3765 11.7467L26.5636 18.9132C26.5545 18.9361 26.5389 18.9559 26.5185 18.9703C26.4982 18.9848 26.4739 18.9933 26.4487 18.9949V18.9949Z" fill="#101820"/>
<path d="M74.9762 18.7945L72.4708 15.5657C73.8848 15.2951 74.7119 14.3315 74.7119 12.8537C74.7119 11.1563 73.6167 10 71.6766 10H68.1859C68.1366 10 68.0893 10.0198 68.0545 10.0549C68.0196 10.0901 68 10.1378 68 10.1876V10.1876C68 10.5061 68.1254 10.8116 68.3486 11.0368C68.5718 11.262 68.8745 11.3885 69.1901 11.3885H71.5286C72.6997 11.3885 73.26 11.9922 73.26 12.8664C73.26 13.7406 72.7124 14.3571 71.5286 14.3571H68.1859C68.1366 14.3571 68.0893 14.3768 68.0545 14.412C68.0196 14.4472 68 14.4949 68 14.5447V18.8724C68 18.9062 68.0133 18.9387 68.037 18.9626C68.0608 18.9866 68.0929 19 68.1265 19H69.3178C69.3514 19 69.3836 18.9866 69.4073 18.9626C69.431 18.9387 69.4443 18.9062 69.4443 18.8724V15.641H70.8203L72.9957 18.5061C73.1111 18.6585 73.2599 18.782 73.4303 18.867C73.6007 18.952 73.7883 18.9962 73.9784 18.9962H74.8839C74.9062 18.9943 74.9277 18.9865 74.946 18.9736C74.9643 18.9606 74.979 18.943 74.9883 18.9225C74.9977 18.902 75.0016 18.8794 74.9994 18.8569C74.9973 18.8344 74.9893 18.8129 74.9762 18.7945Z" fill="#101820"/>
<path d="M53.9762 18.7945L51.4708 15.5657C52.8848 15.2951 53.7132 14.3315 53.7132 12.8537C53.7132 11.1563 52.6179 10 50.6778 10H47.1859C47.1366 10 47.0893 10.0198 47.0545 10.0549C47.0196 10.0901 47 10.1378 47 10.1876V10.1876C47.0003 10.506 47.1258 10.8113 47.3489 11.0364C47.5721 11.2616 47.8746 11.3882 48.1901 11.3885H50.5286C51.701 11.3885 52.2613 11.9922 52.2613 12.8664C52.2613 13.7406 51.7136 14.3571 50.5286 14.3571H47.1859C47.1366 14.3571 47.0893 14.3768 47.0545 14.412C47.0196 14.4472 47 14.4949 47 14.5447V18.8724C47 18.9062 47.0133 18.9387 47.037 18.9626C47.0608 18.9866 47.0929 19 47.1265 19H48.3191C48.3527 19 48.3848 18.9866 48.4085 18.9626C48.4323 18.9387 48.4456 18.9062 48.4456 18.8724V15.641H49.8203L51.9957 18.5061C52.1113 18.6583 52.2601 18.7816 52.4305 18.8666C52.6009 18.9516 52.7883 18.9959 52.9784 18.9962H53.8839C53.9062 18.9943 53.9277 18.9865 53.946 18.9736C53.9643 18.9606 53.979 18.943 53.9883 18.9225C53.9977 18.902 54.0016 18.8794 53.9994 18.8569C53.9973 18.8344 53.9893 18.8129 53.9762 18.7945Z" fill="#101820"/>
<path d="M10.5 6.45139C10.8922 6.45013 11.277 6.55873 11.6106 6.76487C11.9443 6.97101 12.2136 7.26646 12.388 7.61778L18.3253 19.4928C18.4864 19.8147 18.5624 20.1724 18.5463 20.5319C18.5302 20.8915 18.4225 21.241 18.2333 21.5472C18.0441 21.8534 17.7798 22.1061 17.4655 22.2814C17.1511 22.4567 16.7972 22.5486 16.4372 22.5486H4.56276C4.20284 22.5486 3.8489 22.4567 3.53455 22.2814C3.2202 22.1061 2.95588 21.8534 2.76669 21.5472C2.57751 21.241 2.46975 20.8915 2.45366 20.5319C2.43756 20.1724 2.51365 19.8147 2.67471 19.4928L8.61196 7.61778C8.78638 7.26646 9.05569 6.97101 9.38937 6.76487C9.72305 6.55873 10.1078 6.45013 10.5 6.45139ZM10.5 5C9.83849 4.99992 9.19003 5.18405 8.62726 5.53175C8.06449 5.87944 7.60964 6.37698 7.31368 6.96861L1.37643 18.8436C1.10471 19.3868 0.976363 19.9904 1.00358 20.5972C1.0308 21.2039 1.21268 21.7936 1.53194 22.3103C1.8512 22.8269 2.29725 23.2534 2.82771 23.5491C3.35817 23.8449 3.95543 24.0001 4.56276 24H16.4372C17.0446 24.0001 17.6418 23.8449 18.1723 23.5491C18.7028 23.2534 19.1488 22.8269 19.4681 22.3103C19.7873 21.7936 19.9692 21.2039 19.9964 20.5972C20.0236 19.9904 19.8953 19.3868 19.6236 18.8436L13.6863 6.96861C13.3904 6.37698 12.9355 5.87944 12.3727 5.53175C11.81 5.18405 11.1615 4.99992 10.5 5V5Z" fill="#70D44B"/>
</svg>

<svg width="262" height="32" fill="none" xmlns="http://www.w3.org/2000/svg"><path d="M135.64 20.704V19.52h-7.68v1.184h7.68ZM143.394 18h1.28V6.16h-1.28v4.928h-.064c-.528-1.008-1.392-1.536-2.544-1.536-2.016 0-3.232 1.616-3.232 4.32s1.216 4.32 3.232 4.32c1.152 0 2.016-.528 2.544-1.536h.064V18Zm-2.112-.944c-1.488 0-2.352-.992-2.352-2.48v-1.408c0-1.488.864-2.48 2.352-2.48 1.136 0 2.112.592 2.112 1.696v2.976c0 1.104-.976 1.696-2.112 1.696Zm9.706 1.136c2.32 0 3.744-1.696 3.744-4.32 0-2.624-1.424-4.32-3.744-4.32-2.32 0-3.745 1.696-3.745 4.32 0 2.624 1.425 4.32 3.745 4.32Zm0-1.104c-1.424 0-2.384-.848-2.384-2.624V13.28c0-1.776.96-2.624 2.384-2.624s2.384.848 2.384 2.624v1.184c0 1.776-.96 2.624-2.384 2.624Zm9.881 1.104c1.648 0 2.688-.816 3.168-1.92l-.912-.624c-.416.896-1.136 1.44-2.24 1.44-1.552 0-2.384-1.056-2.384-2.512v-1.408c0-1.456.848-2.512 2.352-2.512 1.024 0 1.728.496 2.032 1.344l1.024-.544c-.464-1.12-1.456-1.904-3.056-1.904-2.336 0-3.728 1.696-3.728 4.32 0 2.608 1.376 4.32 3.744 4.32ZM172.127 18h1.28V9.744h-1.28v5.728c0 1.088-1.024 1.584-2.048 1.584-1.264 0-1.952-.736-1.952-2.24V9.744h-1.28v5.296c0 2 1.136 3.152 2.864 3.152 1.36 0 2-.72 2.352-1.536h.064V18Zm4.89 0v-6.064c0-.88.48-1.328 1.168-1.328.752 0 .992.464.992 1.872V18h1.184v-6.064c0-.88.48-1.328 1.152-1.328.768 0 1.008.464 1.008 1.872V18h1.184v-5.728c0-1.744-.352-2.72-1.696-2.72-.976 0-1.488.544-1.792 1.296h-.048c-.096-.768-.56-1.296-1.504-1.296-.912 0-1.328.512-1.584 1.152h-.064v-.96h-1.184V18h1.184Zm12.49.192c1.632 0 2.816-.8 3.312-1.904l-.944-.64c-.432.896-1.264 1.44-2.368 1.44-1.552 0-2.528-1.056-2.528-2.512v-.384h6.112v-.608c0-2.336-1.44-4.032-3.664-4.032-2.24 0-3.792 1.696-3.792 4.336 0 2.608 1.504 4.304 3.872 4.304Zm-.08-7.584c1.36 0 2.288.992 2.288 2.448v.176h-4.736v-.112c0-1.44 1.04-2.512 2.448-2.512ZM197.004 18v-5.728c0-1.088 1.024-1.584 2.048-1.584 1.264 0 1.952.736 1.952 2.24V18h1.28v-5.296c0-2-1.136-3.152-2.864-3.152-1.36 0-2 .72-2.352 1.536h-.064V9.744h-1.28V18h1.28Zm15.162 0v-1.088h-3.76v-6.08h3.76V9.744h-3.76V6.832h-1.232v2.16c0 .56-.208.752-.752.752h-2.048v1.088h2.752v5.28c0 1.104.576 1.888 1.824 1.888h3.216Zm9.978 0v-1.12h-1.152v-4.544c0-1.744-1.232-2.784-3.168-2.784-1.68 0-2.736.8-3.152 1.664l.864.64c.432-.752 1.104-1.216 2.208-1.216 1.248 0 1.968.624 1.968 1.824v.816h-1.76c-2.48 0-3.552.88-3.552 2.4 0 1.552 1.104 2.512 2.832 2.512 1.344 0 2.128-.592 2.48-1.536h.08c.096.768.48 1.344 1.472 1.344h.88Zm-4.688-.88c-1.056 0-1.712-.448-1.712-1.296v-.336c0-.8.688-1.248 2.208-1.248h1.76v1.36c0 .848-.944 1.52-2.256 1.52Zm13.898.88v-1.088h-3.76v-6.08h3.76V9.744h-3.76V6.832h-1.232v2.16c0 .56-.208.752-.752.752h-2.048v1.088h2.752v5.28c0 1.104.576 1.888 1.824 1.888h3.216Zm6.489-10.08c.736 0 1.008-.352 1.008-.816v-.256c0-.464-.272-.816-1.008-.816s-1.008.352-1.008.816v.256c0 .464.272.816 1.008.816ZM234.227 18h7.04v-1.088h-2.784V9.744h-4.256v1.088h2.976v6.08h-2.976V18Zm12.698.192c2.32 0 3.744-1.696 3.744-4.32 0-2.624-1.424-4.32-3.744-4.32-2.32 0-3.744 1.696-3.744 4.32 0 2.624 1.424 4.32 3.744 4.32Zm0-1.104c-1.424 0-2.384-.848-2.384-2.624V13.28c0-1.776.96-2.624 2.384-2.624s2.384.848 2.384 2.624v1.184c0 1.776-.96 2.624-2.384 2.624Zm7.642.912v-5.728c0-1.088 1.024-1.584 2.048-1.584 1.264 0 1.952.736 1.952 2.24V18h1.28v-5.296c0-2-1.136-3.152-2.864-3.152-1.36 0-2 .72-2.352 1.536h-.064V9.744h-1.28V18h1.28ZM42.877 10.002c.033 0 .064.014.087.037a.127.127 0 0 1 .036.089v5.196C43 17.786 41.49 19 39.5 19S36 17.786 36 15.324v-5.199c0-.033.013-.065.036-.088a.121.121 0 0 1 .087-.037h1.182c.032 0 .064.013.087.037a.127.127 0 0 1 .035.088v5.107c0 1.719.879 2.4 2.08 2.4 1.2 0 2.068-.681 2.068-2.4v-5.107c0-.033.013-.065.036-.088a.121.121 0 0 1 .087-.037l1.18.002ZM65 14.5c-.012 2.56-1.96 4.5-4.5 4.5S56 17.06 56 14.5s1.96-4.5 4.5-4.5 4.488 1.94 4.5 4.5Zm-7.587 0c0 1.814 1.327 3.157 3.087 3.157 1.76 0 3.073-1.343 3.073-3.157s-1.326-3.156-3.073-3.156c-1.747 0-3.087 1.342-3.087 3.156ZM78.448 18.995h-1.32a.136.136 0 0 1-.105-.056.125.125 0 0 1-.015-.115l3.486-8.704a.188.188 0 0 1 .07-.087.199.199 0 0 1 .11-.033h1.649c.04 0 .077.011.11.033a.187.187 0 0 1 .07.087l3.49 8.709a.124.124 0 0 1-.016.115.132.132 0 0 1-.105.056h-1.323a.135.135 0 0 1-.073-.023.128.128 0 0 1-.048-.059l-2.811-7.166a.128.128 0 0 0-.049-.056.135.135 0 0 0-.144 0 .128.128 0 0 0-.049.056l-2.811 7.166a.134.134 0 0 1-.116.077ZM26.449 18.995h-1.32a.136.136 0 0 1-.106-.056.125.125 0 0 1-.015-.115l3.488-8.704a.187.187 0 0 1 .07-.087.198.198 0 0 1 .11-.033h1.65c.04 0 .077.011.11.033a.189.189 0 0 1 .071.087l3.485 8.709a.124.124 0 0 1-.015.115.131.131 0 0 1-.105.056h-1.32a.135.135 0 0 1-.074-.023.13.13 0 0 1-.048-.059l-2.812-7.171a.129.129 0 0 0-.048-.056.136.136 0 0 0-.145 0 .13.13 0 0 0-.049.056l-2.812 7.166a.127.127 0 0 1-.046.057.135.135 0 0 1-.07.025ZM74.976 18.794l-2.505-3.228c1.414-.27 2.24-1.235 2.24-2.712 0-1.698-1.094-2.854-3.034-2.854h-3.491a.188.188 0 0 0-.186.188c0 .318.125.624.349.849.223.225.525.351.841.351h2.339c1.17 0 1.731.604 1.731 1.478 0 .875-.548 1.491-1.731 1.491h-3.343a.188.188 0 0 0-.186.188v4.327c0 .034.013.067.037.09a.126.126 0 0 0 .09.038h1.19a.126.126 0 0 0 .09-.037.128.128 0 0 0 .037-.09V15.64h1.376l2.176 2.865a1.24 1.24 0 0 0 .982.49h.906a.127.127 0 0 0 .115-.14.128.128 0 0 0-.023-.062ZM53.976 18.794l-2.505-3.228c1.414-.27 2.242-1.235 2.242-2.712 0-1.698-1.095-2.854-3.035-2.854h-3.492a.188.188 0 0 0-.186.188c0 .318.126.623.349.848.223.226.526.352.841.353h2.339c1.172 0 1.732.603 1.732 1.477 0 .875-.547 1.491-1.732 1.491h-3.343a.188.188 0 0 0-.186.188v4.327c0 .034.013.067.037.09a.126.126 0 0 0 .09.038h1.192a.128.128 0 0 0 .127-.128v-3.231h1.374l2.176 2.865a1.243 1.243 0 0 0 .982.49h.906a.127.127 0 0 0 .115-.14.128.128 0 0 0-.023-.062Z" fill="#101820"/><path d="M10.5 6.451a2.1 2.1 0 0 1 1.888 1.167l5.937 11.875a2.11 2.11 0 0 1-1.888 3.056H4.563a2.111 2.111 0 0 1-1.888-3.056L8.612 7.618A2.1 2.1 0 0 1 10.5 6.45ZM10.5 5a3.562 3.562 0 0 0-3.186 1.969L1.376 18.844A3.563 3.563 0 0 0 4.563 24h11.874a3.561 3.561 0 0 0 3.187-5.156L13.686 6.969A3.562 3.562 0 0 0 10.5 5Z" fill="#70D44B"/></svg>
